X: 38256
T: St Louis Stagger, The
R: jig
M: 6/8
K: Gmajor
|:B2B ABd|G3 -GAB|cBA GFE|EDE FGA|
B2B ABd|G3 EFG|ABc BAG|D2F FGA:|
|:dBB dBA|G3 GAB|cdc cBG|ABA ABc|
ded dBA|GEE EFG|ABc BAG|D2F FGA:|

